assets/img/svg/download.svg

<svg width="20" height="20" viewBox="0 0 20 20" fill="none" xmlns="http://www.w3.org/2000/svg">
<g clip-path="url(#clip0)">
<path fill-rule="evenodd" clip-rule="evenodd" d="M5.5075 1.6775C6.75685 0.600169 8.3503 0.00517314 10 0C13.3625 0 16.1538 2.5 16.4575 5.72375C18.4475 6.005 20 7.67125 20 9.71625C20 11.9612 18.1275 13.75 15.8588 13.75H12.5C12.3342 13.75 12.1753 13.6842 12.0581 13.5669C11.9408 13.4497 11.875 13.2908 11.875 13.125C11.875 12.9592 11.9408 12.8003 12.0581 12.6831C12.1753 12.5658 12.3342 12.5 12.5 12.5H15.86C17.4737 12.5 18.75 11.235 18.75 9.71625C18.75 8.19625 17.475 6.93125 15.8588 6.93125H15.2338V6.30625C15.235 3.53125 12.91 1.25 10 1.25C8.64985 1.25539 7.34605 1.74304 6.32375 2.625C5.3775 3.44 4.8825 4.4225 4.8825 5.19375V5.75375L4.32625 5.815C2.58 6.00625 1.25 7.44 1.25 9.1475C1.25 10.9812 2.7875 12.5 4.72625 12.5H7.5C7.66576 12.5 7.82473 12.5658 7.94194 12.6831C8.05915 12.8003 8.125 12.9592 8.125 13.125C8.125 13.2908 8.05915 13.4497 7.94194 13.5669C7.82473 13.6842 7.66576 13.75 7.5 13.75H4.72625C2.135 13.75 0 11.7075 0 9.1475C0 6.94375 1.5825 5.11875 3.6775 4.65625C3.85625 3.5775 4.55 2.5025 5.5075 1.6775Z" fill="#FFC800"/>
<path fill-rule="evenodd" clip-rule="evenodd" d="M9.55731 19.8175C9.61537 19.8757 9.68434 19.9219 9.76027 19.9534C9.8362 19.9849 9.9176 20.0011 9.99981 20.0011C10.082 20.0011 10.1634 19.9849 10.2394 19.9534C10.3153 19.9219 10.3843 19.8757 10.4423 19.8175L14.1923 16.0675C14.3097 15.9501 14.3756 15.791 14.3756 15.625C14.3756 15.459 14.3097 15.2999 14.1923 15.1825C14.075 15.0651 13.9158 14.9992 13.7498 14.9992C13.5838 14.9992 13.4247 15.0651 13.3073 15.1825L10.6248 17.8663V6.875C10.6248 6.70924 10.559 6.55027 10.4418 6.43306C10.3245 6.31585 10.1656 6.25 9.99981 6.25C9.83405 6.25 9.67508 6.31585 9.55787 6.43306C9.44066 6.55027 9.37481 6.70924 9.37481 6.875V17.8663L6.69231 15.1825C6.57496 15.0651 6.41578 14.9992 6.24981 14.9992C6.08384 14.9992 5.92467 15.0651 5.80731 15.1825C5.68995 15.2999 5.62402 15.459 5.62402 15.625C5.62402 15.791 5.68995 15.9501 5.80731 16.0675L9.55731 19.8175Z" fill="#FFC800"/>
</g>
<defs>
<clipPath id="clip0">
<rect width="20" height="20" fill="white"/>
</clipPath>
</defs>
</svg>

<svg width="20" height="20" fill="none" xmlns="http://www.w3.org/2000/svg"><g clip-path="url(#clip0)" fill-rule="evenodd" clip-rule="evenodd" fill="#FFC800"><path d="M5.508 1.677A6.912 6.912 0 0 1 10 0c3.363 0 6.154 2.5 6.457 5.724C18.447 6.005 20 7.67 20 9.716c0 2.245-1.872 4.034-4.141 4.034H12.5a.624.624 0 1 1 0-1.25h3.36c1.614 0 2.89-1.265 2.89-2.784 0-1.52-1.275-2.785-2.891-2.785h-.625v-.625C15.235 3.531 12.91 1.25 10 1.25a5.662 5.662 0 0 0-3.676 1.375c-.946.815-1.441 1.798-1.441 2.569v.56l-.557.061C2.58 6.006 1.25 7.44 1.25 9.148c0 1.833 1.538 3.352 3.476 3.352H7.5a.625.625 0 1 1 0 1.25H4.726C2.135 13.75 0 11.707 0 9.148c0-2.204 1.583-4.03 3.678-4.492.178-1.078.872-2.153 1.83-2.978z"/><path d="M9.557 19.817a.625.625 0 0 0 .885 0l3.75-3.75a.626.626 0 1 0-.885-.885l-2.682 2.684V6.875a.625.625 0 1 0-1.25 0v10.991l-2.683-2.684a.626.626 0 1 0-.885.885l3.75 3.75z"/></g><defs><clipPath id="clip0"><path fill="#fff" d="M0 0h20v20H0z"/></clipPath></defs></svg>
